static/assets/images/tokens/ausd.svg

<svg width="256" height="256" viewBox="0 0 256 256" fill="none" xmlns="http://www.w3.org/2000/svg">
<path d="M256 127.973C256.022 153.311 248.515 178.084 234.432 199.154C220.349 220.224 200.323 236.642 176.893 246.327C153.524 255.962 127.823 258.469 103.031 253.533C78.2187 248.586 55.4296 236.405 37.5391 218.528C19.6487 200.651 7.45875 177.879 2.50777 153.085C-2.47958 128.274 0.00722885 102.543 9.65373 79.1441C19.3002 55.7454 35.6733 35.7302 56.7027 21.6292C75.9815 8.73211 98.4045 1.31085 121.576 0.15827C144.748 -0.994313 167.797 4.1651 188.263 15.0853C208.728 26.0054 225.84 42.2761 237.771 62.1591C249.701 82.042 256.002 104.79 256 127.973Z" fill="#9A9350"/>
<path d="M125.762 108.538V49H109.31C108.142 48.999 107.002 49.3378 106.04 49.9715C105.078 50.6052 104.339 51.504 103.922 52.5488L91.7131 83.09L120.847 110.514C122.673 112.237 125.762 110.994 125.762 108.538Z" fill="white"/>
<path d="M125.762 163.516V130.07L125.773 130.06C125.773 127.138 124.54 124.329 122.359 122.277L89.4287 91.2768L76.183 124.394L121.326 165.352C121.7 165.688 122.169 165.912 122.675 165.997C123.18 166.081 123.701 166.023 124.172 165.828C124.643 165.633 125.045 165.31 125.327 164.899C125.61 164.489 125.761 164.008 125.762 163.516Z" fill="white"/>
<path d="M125.762 199V184.003L125.759 184.014C125.759 181.318 124.604 178.749 122.559 176.899L73.8913 132.745L50.3816 191.498C50.0472 192.335 49.93 193.237 50.0402 194.126C50.1504 195.015 50.4846 195.866 51.014 196.604C51.5435 197.342 52.2523 197.946 53.0795 198.363C53.9066 198.781 54.8273 198.999 55.7621 199H125.762Z" fill="white"/>
<path d="M133.234 108.538V49H149.683C150.851 48.999 151.991 49.3378 152.953 49.9715C153.915 50.6052 154.654 51.504 155.071 52.5488L167.28 83.09L138.15 110.514C136.323 112.237 133.234 110.994 133.234 108.538Z" fill="white"/>
<path d="M133.234 163.516V130.07L133.227 130.06C133.229 128.61 133.531 127.176 134.117 125.839C134.704 124.503 135.562 123.292 136.641 122.277L169.568 91.2768L182.813 124.394L137.667 165.352C135.998 166.866 133.234 165.725 133.234 163.516Z" fill="white"/>
<path d="M133.234 199V184.003L133.245 184.014C133.245 182.682 133.528 181.364 134.077 180.141C134.627 178.917 135.431 177.814 136.441 176.899L185.109 132.745L208.618 191.498C208.953 192.335 209.07 193.237 208.96 194.127C208.849 195.017 208.515 195.867 207.985 196.605C207.455 197.344 206.746 197.948 205.918 198.365C205.091 198.782 204.169 199 203.234 199H133.234Z" fill="white"/>
</svg>

<svg xmlns="http://www.w3.org/2000/svg" fill="none" viewBox="0 0 256 256"><path fill="#9A9350" d="M256 127.973a127.9 127.9 0 0 1-21.568 71.181 128.04 128.04 0 0 1-57.539 47.173 128.14 128.14 0 0 1-73.862 7.206 128.1 128.1 0 0 1-65.492-35.005 127.93 127.93 0 0 1-35.031-65.443 127.87 127.87 0 0 1 7.146-73.94 128 128 0 0 1 47.049-57.516 128.14 128.14 0 0 1 131.56-6.544 128 128 0 0 1 49.508 47.074A127.9 127.9 0 0 1 256 127.973"/><path fill="#fff" d="M125.762 108.538V49H109.31a5.94 5.94 0 0 0-3.27.971 5.57 5.57 0 0 0-2.118 2.578L91.713 83.09l29.134 27.424c1.826 1.723 4.915.48 4.915-1.976m0 54.978V130.07l.011-.01c0-2.922-1.233-5.731-3.414-7.783l-32.93-31-13.246 33.117 45.143 40.958c.374.336.843.56 1.349.645a2.74 2.74 0 0 0 1.497-.169 2.6 2.6 0 0 0 1.155-.929c.283-.41.434-.891.435-1.383m0 35.484v-14.997l-.003.011c0-2.696-1.155-5.265-3.2-7.115l-48.668-44.154-23.51 58.753a5.3 5.3 0 0 0-.34 2.628c.11.889.444 1.74.973 2.478a5.7 5.7 0 0 0 2.066 1.759 6 6 0 0 0 2.682.637zm7.472-90.462V49h16.449a5.94 5.94 0 0 1 3.27.971 5.57 5.57 0 0 1 2.118 2.578L167.28 83.09l-29.13 27.424c-1.827 1.723-4.916.48-4.916-1.976m0 54.978V130.07l-.007-.01c.002-1.45.304-2.884.89-4.221a10.9 10.9 0 0 1 2.524-3.562l32.927-31 13.245 33.117-45.146 40.958c-1.669 1.514-4.433.373-4.433-1.836m0 35.484v-14.997l.011.011c0-1.332.283-2.65.832-3.873a9.8 9.8 0 0 1 2.364-3.242l48.668-44.154 23.509 58.753c.335.837.452 1.739.342 2.629a5.4 5.4 0 0 1-.975 2.478 5.7 5.7 0 0 1-2.067 1.76 6 6 0 0 1-2.684.635z"/></svg>
